static/images/immudb/runs-on/go.svg

<svg width="150" height="57" viewBox="0 0 150 57" fill="none" xmlns="http://www.w3.org/2000/svg">
<path fill-rule="evenodd" clip-rule="evenodd" d="M11.3201 16.9687C11.0279 16.9687 10.9549 16.8226 11.101 16.6035L12.6346 14.6316C12.7807 14.4125 13.1459 14.2664 13.438 14.2664H39.5106C39.8028 14.2664 39.8758 14.4855 39.7297 14.7046L38.4882 16.6035C38.3421 16.8226 37.977 17.0417 37.7579 17.0417L11.3201 16.9687Z" fill="#00ACD7"/>
<path fill-rule="evenodd" clip-rule="evenodd" d="M0.29213 23.6877C0 23.6877 -0.0730326 23.5416 0.0730326 23.3225L1.60672 21.3506C1.75278 21.1315 2.11795 20.9854 2.41008 20.9854H35.7129C36.0051 20.9854 36.1511 21.2045 36.0781 21.4236L35.4938 23.1764C35.4208 23.4686 35.1287 23.6146 34.8366 23.6146L0.29213 23.6877Z" fill="#00ACD7"/>
<path fill-rule="evenodd" clip-rule="evenodd" d="M17.966 30.4067C17.6739 30.4067 17.6009 30.1876 17.7469 29.9685L18.7694 28.1426C18.9154 27.9235 19.2076 27.7044 19.4997 27.7044H34.1062C34.3984 27.7044 34.5444 27.9235 34.5444 28.2157L34.3984 29.9685C34.3984 30.2606 34.1062 30.4797 33.8871 30.4797L17.966 30.4067Z" fill="#00ACD7"/>
<path fill-rule="evenodd" clip-rule="evenodd" d="M93.7738 15.654C89.1728 16.8226 86.0324 17.699 81.5044 18.8675C80.4089 19.1596 80.3358 19.2326 79.3864 18.1372C78.2909 16.8956 77.4876 16.0922 75.9539 15.3619C71.3528 13.0979 66.8978 13.7552 62.735 16.4574C57.7688 19.6708 55.2126 24.418 55.2857 30.3336C55.3587 36.1762 59.3755 40.9964 65.1451 41.7997C70.1113 42.457 74.2741 40.7042 77.5606 36.9796C78.2179 36.1762 78.8022 35.2998 79.5325 34.2774C76.9033 34.2774 73.6169 34.2774 65.4372 34.2774C63.9035 34.2774 63.5383 33.3279 64.0496 32.0864C64.999 29.8224 66.7518 26.0247 67.7742 24.1258C67.9933 23.6876 68.5046 22.9573 69.6001 22.9573H96.1839C96.0378 24.9292 96.0379 26.9011 95.7457 28.8729C94.9424 34.1313 92.9705 38.9515 89.757 43.1873C84.4987 50.1254 77.6336 54.4344 68.9428 55.6029C61.7856 56.5523 55.1396 55.1647 49.297 50.7827C43.8926 46.6929 40.8252 41.2885 40.0218 34.5695C39.0724 26.6089 41.4095 19.4517 46.2296 13.1709C51.4149 6.37891 58.28 2.06998 66.6787 0.536298C73.5438 -0.705256 80.1167 0.0981021 86.0324 4.1149C89.9031 6.67104 92.6784 10.1766 94.5042 14.4125C94.9424 15.0698 94.6502 15.4349 93.7738 15.654Z" fill="#00ACD7"/>
<path d="M117.948 56.0411C111.302 55.895 105.24 53.9962 100.128 49.6142C95.8188 45.8896 93.1166 41.1424 92.2402 35.5189C90.9256 27.2662 93.1896 19.963 98.1558 13.4631C103.487 6.45194 109.914 2.80031 118.605 1.26662C126.054 -0.0479628 133.065 0.682363 139.419 4.99129C145.189 8.93505 148.767 14.2664 149.717 21.2776C150.958 31.137 148.11 39.1705 141.318 46.0356C136.498 50.9288 130.582 53.9962 123.79 55.3838C121.818 55.749 119.846 55.822 117.948 56.0411ZM135.329 26.5359C135.256 25.5865 135.256 24.8562 135.11 24.1258C133.796 16.8956 127.15 12.8058 120.212 14.4125C113.42 15.9462 109.038 20.2551 107.431 27.1202C106.116 32.8167 108.892 38.5863 114.15 40.9233C118.167 42.6761 122.184 42.457 126.054 40.4851C131.824 37.4908 134.964 32.8167 135.329 26.5359Z" fill="#00ACD7"/>
</svg>

<svg xmlns="http://www.w3.org/2000/svg" width="150" height="57" fill="none" xmlns:v="https://vecta.io/nano"><path d="M11.32 16.969c-.292 0-.365-.146-.219-.365l1.534-1.972c.146-.219.511-.365.803-.365h26.073c.292 0 .365.219.219.438l-1.242 1.899c-.146.219-.511.438-.73.438l-26.438-.073zM.292 23.688c-.292 0-.365-.146-.219-.365l1.534-1.972c.146-.219.511-.365.803-.365h33.303c.292 0 .438.219.365.438l-.584 1.753c-.073.292-.365.438-.657.438l-34.544.073zm17.674 6.719c-.292 0-.365-.219-.219-.438l1.023-1.826c.146-.219.438-.438.73-.438h14.607c.292 0 .438.219.438.511l-.146 1.753c0 .292-.292.511-.511.511l-15.921-.073zm75.808-14.753l-12.269 3.214c-1.096.292-1.169.365-2.118-.73-1.096-1.242-1.899-2.045-3.432-2.775-4.601-2.264-9.056-1.607-13.219 1.095-4.966 3.213-7.522 7.961-7.449 13.876.073 5.843 4.09 10.663 9.859 11.466 4.966.657 9.129-1.096 12.415-4.82.657-.803 1.242-1.68 1.972-2.702H65.437c-1.534 0-1.899-.95-1.388-2.191.949-2.264 2.702-6.062 3.725-7.961.219-.438.73-1.169 1.826-1.169h26.584c-.146 1.972-.146 3.944-.438 5.916-.803 5.258-2.775 10.079-5.989 14.314-5.258 6.938-12.123 11.247-20.814 12.416-7.157.949-13.803-.438-19.646-4.82-5.404-4.09-8.472-9.494-9.275-16.213-.949-7.961 1.388-15.118 6.208-21.399C51.415 6.379 58.28 2.07 66.679.536 73.544-.705 80.117.098 86.032 4.115c3.871 2.556 6.646 6.062 8.472 10.298.438.657.146 1.022-.73 1.242z" fill-rule="evenodd" fill="#00acd7"/><path d="M117.948 56.041c-6.646-.146-12.708-2.045-17.82-6.427-4.309-3.725-7.011-8.472-7.888-14.095-1.315-8.253.949-15.556 5.916-22.056 5.331-7.011 11.758-10.663 20.449-12.196 7.449-1.315 14.46-.584 20.814 3.725 5.77 3.944 9.348 9.275 10.298 16.286 1.241 9.859-1.607 17.893-8.399 24.758-4.82 4.893-10.736 7.961-17.528 9.348-1.972.365-3.944.438-5.842.657zm17.381-29.505c-.073-.949-.073-1.68-.219-2.41-1.314-7.23-7.96-11.32-14.898-9.713-6.792 1.534-11.174 5.843-12.781 12.708-1.315 5.696 1.461 11.466 6.719 13.803 4.017 1.753 8.034 1.534 11.904-.438 5.77-2.994 8.91-7.668 9.275-13.949z" fill="#00acd7"/></svg>
